X:1
T:Stormalong
M:4/4
L:1/4
K:C
 z/2 G/2| G3/2 G/2 B(2G3.99999962500005/11.9999985000002G3.99999962500005/11.9999985000002A3.99999962500005/11.9999985000002 B3.99999962500005/11.9999985000002|\
 c c G3/2 A/4B/4| c3 G| c/2 G E/2- E| d| cc/2-B/2 A D3/4 F/4| A A3/4- B/4 A2|\
 A A A G3/4 F/4| E/2 G G3/2||

